assets/svg/purple_rider.svg

<svg fill="none" height="287" viewBox="0 0 287 287" width="287" xmlns="http://www.w3.org/2000/svg"><g fill="#7200a6"><path d="m267.914 76.2664h-71.893c-2.606 0-4.721 2.1123-4.721 4.7207v14.4014c-6.007-8.8884-14.419-14.4332-23.76-14.4332 0 0-9.713-1.7022-14.161 4.7206-10.704 15.4531-41.17 34.6361-47.199 37.7621l.094.19c-.508-.115-1.033-.19-1.576-.19-.72 0-1.4.141-2.058.338l1.526-4.313c.15-.442 1.39-4.437-.513-8.045-1.12-2.124-3.123-3.651-5.7974-4.414-7.3993-2.096-11.2987 3.162-12.2264 5.995l-4.3713 9.391c-.5512-8.627-7.6485-15.475-16.4137-15.475v33.038c3.6594 0 7.0087-1.228 9.747-3.242l-25.7726 55.364c-5.5308-.586-11.1474.238-16.3791 2.517-7.9588 3.47-14.0858 9.836-17.2602 17.917l-.839 2.136 5.7886 2.462c-2.7289 3.866-4.4021 8.326-4.7329 13.119-.4737 6.92 1.7732 13.612 6.3286 18.839 4.5573 5.227 10.8773 8.366 17.7935 8.84.6082.04 1.2136.061 1.8199.061 6.265 0 12.2461-2.23 17.0163-6.389 4.4226-3.851 7.2357-9 8.3203-14.674l5.1113 2.173h91.2661c3.972 11.194 14.554 18.882 26.605 18.882 12.103 0 22.636-7.668 26.607-18.882h14.184c3.165 0 6.219-1.34 8.372-3.679 2.123-2.31 3.199-5.413 2.942-8.513-1.539-18.531-7.36-35.451-13.874-47.151 1.358-.83 2.313-2.259 2.313-3.967l-.001-14.816c0-2.606-2.112-4.721-4.72-4.721h42.442c2.606 0 4.721-2.112 4.721-4.721v-70.5227c-.009-2.6064-2.118-4.7216-4.728-4.7216zm-120.908 104.1926-7.577 30.308-2.58-27.442c.129-7.675 1.111-11.156 5.606-12.658v5.106c0 .637.126 1.243.356 1.794.688 1.653 2.301 2.821 4.195 2.89zm-36.104-19.26c0 22.01 3.9 42.732 5.645 50.897-.003 0-.003 0-.006-.003v.003c-18.7751-5.14-35.2742-15.547-35.645-26.909l17.9431-50.686c0 .003.0028.003.0028.005l.0028-.005c1.2743 1.871 3.4183 3.1 5.8523 3.1 3.22-.003 5.906-2.164 6.762-5.112 4.388-3.014 34.727-23.444 44.887-19.594.68.256 1.271.621 1.756 1.109 3.266 3.266 4.721 10.262 4.721 14.16-.004 16.041-51.306 14.976-51.921 33.036zm130.259-47.326-17.22 16.703 9.5-13.862-5.253-1.935 12.972-14.8807s-6.925 11.9327-6.727 12.5247c.197.585 6.728 1.45 6.728 1.45z"/><path d="m142.825 177.561c.689 1.652 2.302 2.821 4.196 2.893v-.003c-1.896-.066-3.51-1.234-4.196-2.89z"/><path d="m156.357 112.892c.678.255 1.264.62 1.748 1.105 3.267 3.266 4.721 10.262 4.721 14.16.003 16.047-51.301 14.982-51.918 33.043 0 22.01 3.903 42.725 5.645 50.895.003 0 .003 0 .006.003-1.745-8.165-5.646-28.887-5.646-50.897.617-18.061 51.921-16.996 51.921-33.039 0-3.897-1.455-10.894-4.721-14.16-.489-.488-1.08-.852-1.757-1.108z"/><path d="m104.705 137.598h.005c-2.433 0-4.578-1.229-5.8519-3.1l-.0028.006c1.2747 1.865 3.4187 3.094 5.8497 3.094z"/><path d="m118.029 52.6387 19.958-.0028c-.15 1.8142-.207 4.3535.089 7.0891h-7.629c.017-.2037.055-.4195.055-.611 0-3.4184-11.662-3.4184-11.662 0s2.612 8.6184 5.829 8.6184c2.623 0 4.813-3.4464 5.547-6.5723h8.034c.531 3.3866 1.69 6.9451 4.047 9.7721 2.937 3.5212 7.143 5.3066 12.516 5.3066 12.878 0 16.437-12.3293 16.52-18.882 0-15.6187-12.706-28.3197-28.32-28.3197-12.617 0-23.824 8.4727-27.253 20.6011-.204.7119-.057 1.478.388 2.0666.447.5904 1.141.9351 1.882.9351z"/></g></svg>

<svg width="287" height="287" viewBox="0 0 287 287" fill="none" xmlns="http://www.w3.org/2000/svg">
<path d="M267.914 76.2664H196.021C193.415 76.2664 191.3 78.3787 191.3 80.9871V95.3885C185.293 86.5001 176.881 80.9553 167.54 80.9553C167.54 80.9553 157.827 79.2531 153.379 85.6759C142.675 101.129 112.209 120.312 106.18 123.438L106.274 123.628C105.766 123.513 105.241 123.438 104.698 123.438C103.978 123.438 103.298 123.579 102.64 123.776L104.166 119.463C104.316 119.021 105.556 115.026 103.653 111.418C102.533 109.294 100.53 107.767 97.8556 107.004C90.4563 104.908 86.5569 110.166 85.6292 112.999L81.2579 122.39C80.7067 113.763 73.6094 106.915 64.8442 106.915V139.953C68.5036 139.953 71.8529 138.725 74.5912 136.711L48.8186 192.075C43.2878 191.489 37.6712 192.313 32.4395 194.592C24.4807 198.062 18.3537 204.428 15.1793 212.509L14.3403 214.645L20.1289 217.107C17.4 220.973 15.7268 225.433 15.396 230.226C14.9223 237.146 17.1692 243.838 21.7246 249.065C26.2819 254.292 32.6019 257.431 39.5181 257.905C40.1263 257.945 40.7317 257.966 41.338 257.966C47.603 257.966 53.5841 255.736 58.3543 251.577C62.7769 247.726 65.59 242.577 66.6746 236.903L71.7859 239.076H163.052C167.024 250.27 177.606 257.958 189.657 257.958C201.76 257.958 212.293 250.29 216.264 239.076H230.448C233.613 239.076 236.667 237.736 238.82 235.397C240.943 233.087 242.019 229.984 241.762 226.884C240.223 208.353 234.402 191.433 227.888 179.733C229.246 178.903 230.201 177.474 230.201 175.766L230.2 160.95C230.2 158.344 228.088 156.229 225.48 156.229H267.922C270.528 156.229 272.643 154.117 272.643 151.508V80.9853C272.634 78.3789 270.525 76.2637 267.915 76.2637L267.914 76.2664ZM147.006 180.459L139.429 210.767L136.849 183.325C136.978 175.65 137.96 172.169 142.455 170.667V175.773C142.455 176.41 142.581 177.016 142.811 177.567C143.499 179.22 145.112 180.388 147.006 180.457L147.006 180.459ZM110.902 161.199C110.902 183.209 114.802 203.931 116.547 212.096C116.544 212.096 116.544 212.096 116.541 212.093V212.096C97.7659 206.956 81.2668 196.549 80.896 185.187L98.8391 134.501C98.8391 134.504 98.8419 134.504 98.8419 134.506L98.8447 134.501C100.119 136.372 102.263 137.601 104.697 137.601C107.917 137.598 110.603 135.437 111.459 132.489C115.847 129.475 146.186 109.045 156.346 112.895C157.026 113.151 157.617 113.516 158.102 114.004C161.368 117.27 162.823 124.266 162.823 128.164C162.819 144.205 111.517 143.14 110.902 161.2L110.902 161.199ZM241.161 113.873L223.941 130.576L233.441 116.714L228.188 114.779L241.16 99.8983C241.16 99.8983 234.235 111.831 234.433 112.423C234.63 113.008 241.161 113.873 241.161 113.873Z" fill="#7200A6"/>
<path d="M142.825 177.561C143.514 179.213 145.127 180.382 147.021 180.454V180.451C145.125 180.385 143.511 179.217 142.825 177.561Z" fill="#7200A6"/>
<path d="M156.357 112.892C157.035 113.147 157.621 113.512 158.105 113.997C161.372 117.263 162.826 124.259 162.826 128.157C162.829 144.204 111.525 143.139 110.908 161.2C110.908 183.21 114.811 203.925 116.553 212.095C116.556 212.095 116.556 212.095 116.559 212.098C114.814 203.933 110.913 183.211 110.913 161.201C111.53 143.14 162.834 144.205 162.834 128.162C162.834 124.265 161.379 117.268 158.113 114.002C157.624 113.514 157.033 113.15 156.356 112.894L156.357 112.892Z" fill="#7200A6"/>
<path d="M104.705 137.598H104.71C102.277 137.598 100.132 136.369 98.8581 134.498L98.8553 134.504C100.13 136.369 102.274 137.598 104.705 137.598Z" fill="#7200A6"/>
<path d="M118.029 52.6387L137.987 52.6359C137.837 54.4501 137.78 56.9894 138.076 59.725H130.447C130.464 59.5213 130.502 59.3055 130.502 59.114C130.502 55.6956 118.84 55.6956 118.84 59.114C118.84 62.5324 121.452 67.7324 124.669 67.7324C127.292 67.7324 129.482 64.286 130.216 61.1601H138.25C138.781 64.5467 139.94 68.1052 142.297 70.9322C145.234 74.4534 149.44 76.2388 154.813 76.2388C167.691 76.2388 171.25 63.9095 171.333 57.3568C171.333 41.7381 158.627 29.0371 143.013 29.0371C130.396 29.0371 119.189 37.5098 115.76 49.6382C115.556 50.3501 115.703 51.1162 116.148 51.7048C116.595 52.2952 117.289 52.6399 118.03 52.6399L118.029 52.6387Z" fill="#7200A6"/>
</svg>
